img/pages/os-logos.svg

<svg xmlns="http://www.w3.org/2000/svg" width="343" height="80"><g fill="none" fill-rule="evenodd"><path fill="#63BA0D" d="M331,25 L331,60 C331,62.209139 329.209139,64 327,64 L323,64 L323,75 C323,77.7614237 320.761424,80 318,80 C315.238576,80 313,77.7614237 313,75 L313,64 L305,64 L305,75 C305,77.7614237 302.761424,80 300,80 C297.238576,80 295,77.7614237 295,75 L295,64 L291,64 C288.790861,64 287,62.209139 287,60 L287,25 L331,25 Z M279.5,25 C281.985281,25 284,27.0147186 284,29.5 L284,49.5 C284,51.9852814 281.985281,54 279.5,54 C277.014719,54 275,51.9852814 275,49.5 L275,29.5 C275,27.0147186 277.014719,25 279.5,25 Z M338.5,25 C340.985281,25 343,27.0147186 343,29.5 L343,49.5 C343,51.9852814 340.985281,54 338.5,54 C336.014719,54 334,51.9852814 334,49.5 L334,29.5 C334,27.0147186 336.014719,25 338.5,25 Z M322.530133,0.152135551 C322.965017,0.423938002 323.11884,0.975314781 322.904236,1.42767259 L322.848132,1.53013279 L319.605147,6.72020459 C325.281001,9.84895092 329.427186,15.4112087 330.637366,22.0006433 L287.362634,22.0006433 C288.572886,15.4108189 292.719489,9.8482929 298.395861,6.71964942 L295.152136,1.53013279 C294.859425,1.06179626 295.001798,0.444845883 295.470135,0.152135551 C295.905019,-0.1196669 296.468044,-0.0163208263 296.780618,0.374806089 L296.848132,0.470134915 L300.199096,5.83098733 C302.894169,4.65331513 305.870789,4 309,4 C312.129598,4 315.106568,4.6534769 317.801905,5.83142472 L321.152136,0.470134915 L321.21965,0.374806089 C321.532223,-0.0163208263 322.095249,-0.1196669 322.530133,0.152135551 Z M299.5,11 C298.119288,11 297,12.1192881 297,13.5 C297,14.8807119 298.119288,16 299.5,16 C300.880712,16 302,14.8807119 302,13.5 C302,12.1192881 300.880712,11 299.5,11 Z M318.5,11 C317.119288,11 316,12.1192881 316,13.5 C316,14.8807119 317.119288,16 318.5,16 C319.880712,16 321,14.8807119 321,13.5 C321,12.1192881 319.880712,11 318.5,11 Z"/><path fill="#0D75C4" d="M251,41 L251,75 L212,70.667 L212,41 L251,41 Z M179,41 L209,41 L209,70.333 L179,67 L179,41 Z M251,38 L212,38 L212,8.417 L251,3 L251,38 Z M209,8.833 L209,38 L179,38 L179,13 L209,8.833 Z"/><g transform="translate(83 1)"><path fill="#C7E4FB" d="M39.5014724,58.5907244 C29.8924303,58.9574468 19.5305734,57.1802534 10.7950805,52.8218982 L12.6060973,50.0009563 C21.1285294,53.971432 30.8298978,55.3325365 39.5014724,54.9376046 C39.5014724,55.2479082 39.8778798,49.1123596 40.4389399,45.7695434 L27.3996189,45.7695434 C28.4388351,33.1173629 32.410549,20.8752324 39.0043305,10 L0,10 L0,69 L41,69 C40.0696345,65.4738226 39.5014724,58.463782 39.5014724,58.5907244 Z"/><path fill="#4AA9F2" d="M42.4077135,54.6890616 C49.4669421,53.9837418 55.6861226,52.1499103 59.4698691,49.7518231 L61.7005854,52.5731022 C56.4908747,55.6130305 49.6998967,57.5949791 42.4077135,58.3426181 C42.5929848,61.943539 43.1536981,65.5153278 44.0807507,69 L72,69 L72,10 L42.2947658,10 C36.103055,19.598483 32.2358184,30.506848 31,41.8592947 L44.3278237,41.8592947 C43.2156012,46.0519235 42.5716374,50.3547522 42.4077135,54.6890616 L42.4077135,54.6890616 Z"/><polygon fill="#4FACF3" points="17 19 21 19 21 28 17 28 17 19"/><polygon fill="#04253E" points="49 19 53 19 53 28 49 28 49 19"/><path fill="#04253E" d="M43.3820878,54.5328267 C50.1943498,53.8347619 56.1959527,52.0197932 59.8473252,49.6463727 L62,52.4386321 C56.9725506,55.4472917 50.4191545,57.4088539 43.3820878,58.1488027 C43.6664472,64.8199423 45.3608522,71.3482882 48.3482268,77.2827604 L45.235023,79 C39.5535965,69.8064858 38.5045081,57.4158346 40.5073132,45.7023063 L28,45.7023063 C29.2991377,28.8818775 35.7047946,12.9003 46.3181727,0 L49.0430775,2.39436246 C39.6883985,13.489681 33.8713895,27.2528563 32.3734723,41.835027 L45.235023,41.835027 C44.1617116,45.9845303 43.5402768,50.2431002 43.3820878,54.5328267 L43.3820878,54.5328267 Z"/><path fill="#4FACF3" d="M39,54.5662669 L39,57.956671 C29.6274122,58.2963647 19.5205344,56.6501569 11,52.6130282 L12.7664523,50 C21.0791687,53.6778373 30.541811,54.9386234 39,54.5727994 L39,54.5662669 Z"/></g><path fill="#616161" fill-rule="nonzero" d="M29.9489058,20.7039615 C32.8216334,20.6993647 38.1831331,16.8242671 43.826817,17.3850761 C46.1906879,17.4816087 52.8197035,18.3228221 57.0848482,24.5055104 C56.7471524,24.716963 49.1790648,29.1069015 49.2762102,38.2177478 L49.2762102,38.2177478 L49.2530803,38.2177478 C49.3687296,49.0937632 58.8889767,52.7252307 59,52.7711986 C57.8341328,56.4072435 56.1484703,59.8579311 53.9947,63.0174531 C50.9785673,67.4073917 47.8560373,71.778943 42.9201268,71.8708789 C38.0674839,71.9720084 36.5039059,69.03006 30.9573674,69.0346568 C25.4108288,69.0392536 23.6807159,71.8111206 19.0917532,71.9949924 C14.3270037,72.1788641 10.690991,67.264891 7.64247646,62.9025332 C1.42054626,53.9709619 -3.35808118,37.6661325 3.01650605,26.6338262 C6.18992175,21.1590442 11.8521095,17.6930613 17.9907723,17.5919318 C22.6676284,17.4862055 27.0761782,20.7085583 29.9489058,20.7039615 Z M43.9332144,2.84217094e-14 C44.4004374,4.21526038 42.6980803,8.44431113 40.1676744,11.4919858 L40.1676744,11.4919858 C37.6372686,14.5350636 33.4831472,16.9024127 29.4215452,16.5898306 C28.8664287,12.4573126 30.9203596,8.1501163 33.2611006,5.45639484 C35.8793999,2.41331701 40.2925756,0.147097418 43.9332144,2.84217094e-14 Z"/></g></svg>

<svg xmlns="http://www.w3.org/2000/svg" width="343" height="80" viewBox="0 0 343 80"><g fill="none" fill-rule="evenodd"><path fill="#63BA0D" d="M331 25v35a4 4 0 01-4 4h-4v11a5 5 0 11-10 0V64h-8v11a5 5 0 11-10 0V64h-4a4 4 0 01-4-4V25h44zm-51.5 0a4.5 4.5 0 014.5 4.5v20a4.5 4.5 0 01-9 0v-20a4.5 4.5 0 014.5-4.5zm59 0a4.5 4.5 0 014.5 4.5v20a4.5 4.5 0 01-9 0v-20a4.5 4.5 0 014.5-4.5zM322.53.152a1 1 0 01.374 1.276l-.056.102-3.243 5.19c5.676 3.129 9.822 8.691 11.032 15.28h-43.274c1.21-6.59 5.356-12.152 11.033-15.28l-3.244-5.19a1 1 0 011.629-1.155l.067.095 3.351 5.361A21.926 21.926 0 01309 4c3.13 0 6.107.653 8.802 1.831l3.35-5.36.068-.096a1 1 0 011.31-.223zM299.5 11a2.5 2.5 0 100 5 2.5 2.5 0 000-5zm19 0a2.5 2.5 0 100 5 2.5 2.5 0 000-5z"/><path fill="#0D75C4" d="M251 41v34l-39-4.333V41h39zm-72 0h30v29.333L179 67V41zm72-3h-39V8.417L251 3v35zM209 8.833V38h-30V13l30-4.167z"/><path fill="#C7E4FB" d="M122.501 59.59c-9.609.367-19.97-1.41-28.706-5.768L95.606 51c8.523 3.97 18.224 5.332 26.895 4.937 0 .31.377-5.826.938-9.168h-13.04A81.922 81.922 0 01122.005 11H83v59h41c-.93-3.526-1.499-10.536-1.499-10.41z"/><path fill="#4AA9F2" d="M125.408 55.69c7.059-.706 13.278-2.54 17.062-4.938l2.23 2.821c-5.21 3.04-12 5.022-19.292 5.77.185 3.6.746 7.172 1.673 10.657H155V11h-29.705A73.433 73.433 0 00114 42.86h13.328a58.685 58.685 0 00-1.92 12.83z"/><path fill="#4FACF3" d="M100 20h4v9h-4v-9z"/><path fill="#04253E" d="M132 20h4v9h-4v-9z"/><path fill="#04253E" d="M126.382 55.533c6.812-.698 12.814-2.513 16.465-4.887L145 53.44c-5.027 3.008-11.58 4.97-18.618 5.71a47.022 47.022 0 004.966 19.134L128.235 80c-5.681-9.194-6.73-21.584-4.728-33.298H111C112.3 29.882 118.705 13.9 129.318 1l2.725 2.394c-9.355 11.096-15.172 24.859-16.67 39.441h12.862a59.463 59.463 0 00-1.853 12.698z"/><path fill="#4FACF3" d="M122 55.566v3.39c-9.373.34-19.48-1.306-28-5.343L95.766 51c8.313 3.678 17.776 4.939 26.234 4.573v-.007z"/><path fill="#616161" fill-rule="nonzero" d="M29.949 20.704c2.873-.005 8.234-3.88 13.878-3.319 2.364.097 8.993.938 13.258 7.12-.338.212-7.906 4.602-7.809 13.713h-.023C49.37 49.094 58.89 52.725 59 52.77a39.726 39.726 0 01-5.005 10.246c-3.016 4.39-6.139 8.762-11.075 8.854-4.853.101-6.416-2.84-11.963-2.836-5.546.004-7.276 2.776-11.865 2.96-4.765.184-8.401-4.73-11.45-9.092-6.221-8.932-11-25.237-4.625-36.27 3.173-5.474 8.835-8.94 14.974-9.041 4.677-.106 9.085 3.117 11.958 3.112zM43.933 0c.467 4.215-1.235 8.444-3.765 11.492-2.53 3.043-6.685 5.41-10.746 5.098-.556-4.133 1.498-8.44 3.84-11.134C35.878 2.413 40.291.147 43.932 0z"/></g></svg>
